public/backgrounds/illustrated.svg

<svg width="709" height="394" viewBox="0 0 709 394" fill="none" xmlns="http://www.w3.org/2000/svg">
<g clip-path="url(#clip0)">
<path d="M0 0H709V394H0V0Z" fill="#10E78E"/>
<path d="M88.3885 43.3673C31.8181 231.865 -179.591 255.868 -250.871 243.928C-256.089 243.053 -261.059 246.96 -261.059 252.251V314.252C-261.059 318.406 -257.88 321.869 -253.741 322.223L993.796 429.081C998.467 429.481 1002.48 425.798 1002.48 421.111V345.866C1002.48 341.448 998.724 337.868 994.306 337.845C542.373 335.467 473.341 135.532 342.817 -35.0533C209.873 -208.803 120.757 -64.4862 88.3885 43.3673Z" fill="url(#paint0_linear)"/>
<path d="M343.75 199.252C287.637 10.3583 78.0119 -13.7768 7.17198 -1.84665C1.94538 -0.966431 -3.04297 -4.87564 -3.04297 -10.1758V-72.3621C-3.04297 -76.513 0.131846 -79.9744 4.26734 -80.3323L1242.21 -187.457C1246.88 -187.862 1250.9 -184.178 1250.9 -179.487V-104.012C1250.9 -99.5934 1247.14 -96.0135 1242.72 -95.9898C794.279 -93.5876 725.772 106.856 596.246 277.876C464.311 452.077 375.872 307.386 343.75 199.252Z" fill="url(#paint1_linear)"/>
<path d="M-372.113 15.9059C-437.131 107.522 -682.152 118.271 -760.333 112.075C-765.106 111.696 -769.184 115.427 -769.184 120.216V141.885C-769.184 146.191 -765.776 149.724 -761.473 149.88L658.262 201.306C662.791 201.47 666.552 197.843 666.552 193.311V165.418C666.552 161 662.791 157.419 658.373 157.41C143.854 156.404 65.408 60.2519 -83.01 -21.7767C-234.072 -105.267 -335.333 -35.9198 -372.113 15.9059Z" fill="url(#paint2_linear)"/>
<path d="M-452.74 -23.2557C-501.014 163.362 -680.1 188.75 -743.285 177.651C-748.631 176.712 -753.939 180.659 -753.939 186.087V247.729C-753.939 251.841 -750.822 255.283 -746.731 255.69L326.351 362.328C331.058 362.796 335.142 359.099 335.142 354.368V279.243C335.142 274.825 331.394 271.246 326.975 271.214C-61.5519 268.46 -121.047 68.7453 -233.44 -101.676C-348.029 -275.426 -424.841 -131.109 -452.74 -23.2557Z" fill="url(#paint3_linear)"/>
</g>
<defs>
<linearGradient id="paint0_linear" x1="431.261" y1="-382.243" x2="406.971" y2="365.267" gradientUnits="userSpaceOnUse">
<stop stop-opacity="0.72"/>
<stop offset="1" stop-color="#9BF0E1" stop-opacity="0"/>
</linearGradient>
<linearGradient id="paint1_linear" x1="684.018" y1="625.968" x2="659.415" y2="-123.467" gradientUnits="userSpaceOnUse">
<stop stop-opacity="0.72"/>
<stop offset="1" stop-color="#9BF0E1" stop-opacity="0"/>
</linearGradient>
<linearGradient id="paint2_linear" x1="17.487" y1="-188.608" x2="12.5469" y2="170.896" gradientUnits="userSpaceOnUse">
<stop stop-opacity="0.72"/>
<stop offset="1" stop-color="#9BF0E1" stop-opacity="0"/>
</linearGradient>
<linearGradient id="paint3_linear" x1="-157.208" y1="-448.866" x2="-185.378" y2="298.371" gradientUnits="userSpaceOnUse">
<stop stop-opacity="0.72"/>
<stop offset="1" stop-color="#9BF0E1" stop-opacity="0"/>
</linearGradient>
<clipPath id="clip0">
<path d="M0 0H709V394H0V0Z" fill="white"/>
</clipPath>
</defs>
</svg>

<svg id="Layer_1" data-name="Layer 1" xmlns="http://www.w3.org/2000/svg" xmlns:xlink="http://www.w3.org/1999/xlink" viewBox="0 0 2021.08 617.6"><defs><style>.cls-1,.cls-2{fill:#35479d;}.cls-1,.cls-4{stroke:#fff;stroke-miterlimit:10;}.cls-3{clip-path:url(#clip-path);}.cls-4{fill:none;}</style><clipPath id="clip-path" transform="translate(769.68 187.99)"><rect class="cls-1" width="709" height="394"/></clipPath></defs><rect class="cls-2" x="769.68" y="187.99" width="709" height="394"/><g class="cls-3"><path class="cls-1" d="M0,0H709V394H0Z" transform="translate(769.68 187.99)"/><path class="cls-1" d="M88.39,43.37c-56.57,188.5-268,212.5-339.26,200.56a8.65,8.65,0,0,0-10.19,8.32v62a8,8,0,0,0,7.32,8L993.8,429.08a8,8,0,0,0,8.68-8V345.87a8.18,8.18,0,0,0-8.17-8c-451.94-2.38-521-202.32-651.49-372.9C209.87-208.8,120.76-64.49,88.39,43.37Z" transform="translate(769.68 187.99)"/><path class="cls-1" d="M343.75,199.25C287.64,10.36,78-13.78,7.17-1.85A8.67,8.67,0,0,1-3-10.18V-72.36a8,8,0,0,1,7.31-8L1242.21-187.46a8,8,0,0,1,8.69,8V-104a8.18,8.18,0,0,1-8.18,8c-448.44,2.4-516.95,202.85-646.47,373.87C464.31,452.08,375.87,307.39,343.75,199.25Z" transform="translate(769.68 187.99)"/><path class="cls-1" d="M-372.11,15.91c-65,91.61-310,102.36-388.22,96.16a8.18,8.18,0,0,0-8.85,8.15v21.66a8,8,0,0,0,7.71,8L658.26,201.31a8,8,0,0,0,8.29-8V165.42a8.17,8.17,0,0,0-8.18-8C143.85,156.4,65.41,60.25-83-21.78-234.07-105.27-335.33-35.92-372.11,15.91Z" transform="translate(769.68 187.99)"/><path class="cls-1" d="M-452.74-23.26C-501,163.36-680.1,188.75-743.28,177.65c-5.35-.94-10.66,3-10.66,8.44v61.64a8,8,0,0,0,7.21,8L326.35,362.33a8,8,0,0,0,8.79-8V279.24a8.2,8.2,0,0,0-8.16-8C-61.55,268.46-121,68.75-233.44-101.68-348-275.43-424.84-131.11-452.74-23.26Z" transform="translate(769.68 187.99)"/></g><rect class="cls-4" x="769.68" y="187.99" width="709" height="394"/></svg>
